packages/icons/src/lock-open-2.svg

<svg width="15" height="15" viewBox="0 0 15 15" fill="none" xmlns="http://www.w3.org/2000/svg">
  <path
    fill-rule="evenodd"
    clip-rule="evenodd"
    d="M9 3.63601C9 2.76044 9.24207 2.11211 9.64154 1.68623C10.0366 1.26502 10.6432 1 11.5014 1C12.4485 1 13.0839 1.30552 13.4722 1.80636C13.8031 2.23312 14 2.84313 14 3.63325H15C15 2.68242 14.7626 1.83856 14.2625 1.19361C13.6389 0.38943 12.6743 0 11.5014 0C10.4294 0 9.53523 0.337871 8.91218 1.0021C8.29351 1.66167 8 2.58135 8 3.63601V6H1C0.447715 6 0 6.44772 0 7V13C0 13.5523 0.447715 14 1 14H10C10.5523 14 11 13.5523 11 13V7C11 6.44772 10.5523 6 10 6H9V3.63601ZM1 7H10V13H1V7Z"
    fill="currentColor"
  />
</svg>

<svg xmlns="http://www.w3.org/2000/svg" width="15" height="15" fill="none"><path fill="currentColor" fill-rule="evenodd" d="M9 3.636c0-.876.242-1.524.642-1.95.395-.421 1.001-.686 1.86-.686.946 0 1.582.306 1.97.806.331.427.528 1.037.528 1.827h1c0-.95-.237-1.794-.738-2.44C13.64.39 12.674 0 11.503 0c-1.073 0-1.967.338-2.59 1.002C8.294 1.662 8 2.582 8 3.636V6H1a1 1 0 0 0-1 1v6a1 1 0 0 0 1 1h9a1 1 0 0 0 1-1V7a1 1 0 0 0-1-1H9zM1 7h9v6H1z" clip-rule="evenodd"/></svg>
